layouts/icon-pack/armor_clothing.svg

<?xml version="1.0" encoding="UTF-8"?>
<svg width="1200pt" height="1200pt" version="1.1" viewBox="0 0 1200 1200" xmlns="http://www.w3.org/2000/svg">
 <path d="m783.77 63.469c-8.8984-2.6055-18.371-2.5312-27.227 0.22266-8.8555 2.75-16.699 8.0547-22.555 15.246l-93.305 78.586c-4.5859 3.7461-7.6523 9.0312-8.6211 14.871-0.97266 5.8438 0.21875 11.836 3.3477 16.863 3.7188 5.7344 9.7227 9.5977 16.484 10.609 6.7578 1.0078 13.629-0.93359 18.859-5.3359l20.602-17.344c-9.375 21.094-19.289 42.188-29.016 62.086l-59.273-30.867h-0.21094l-154.55-80.391-1.4062-3.5859c-5.332-13.77-16.184-24.68-29.922-30.09-13.742-5.4102-29.117-4.8242-42.406 1.6133-64.734 31.219-170.11 89.203-209.95 151.24-47.883 74.484-89.672 210.59-103.95 260.16-3.7695 12.832-1.3633 26.691 6.5156 37.5 35.742 48.586 101.65 77.344 153.28 93.281 6.8711 2.1289 14.344 0.92188 20.191-3.2656 5.8477-4.1875 9.3984-10.871 9.5977-18.062 1.5703-60.305-1.0078-119.27-3.5391-152.13-0.50391-6.3125 1.5234-12.57 5.6406-17.383 4.1133-4.8164 9.9766-7.7969 16.293-8.2812 6.3125-0.48437 12.562 1.5625 17.367 5.6914 4.8008 4.1289 7.7617 10 8.2305 16.316 1.3594 17.578 8.5781 120 0.77344 215.62 2.2031 98.789-23.625 216.23-35.156 263.11-3.6289 14.871-1.2539 30.574 6.6094 43.711 40.781 68.156 113.77 106.95 181.03 128.91 71.738 23.191 147.54 31.102 222.52 23.227 156.84-15.914 231.73-50.836 273.98-83.367 10.453-8.0703 17.836-19.465 20.926-32.305s1.7031-26.348-3.9336-38.289c-46.055-97.828-49.898-268.22-50.203-295.97-4.6445-82.172-15.305-163.89-31.898-244.5-1.7188-8.2461 1.043-16.789 7.2656-22.465 6.2227-5.6797 14.98-7.6523 23.035-5.1914 8.0547 2.4609 14.215 8.9922 16.199 17.18 13.359 63.551 22.953 127.84 28.734 192.52 0.73438 7.8945 5.4844 14.855 12.57 18.414 7.0898 3.5625 15.508 3.2188 22.281-0.90625 48.594-29.906 94.57-63.871 137.44-101.53 10.91-9.6562 16.289-24.117 14.344-38.555-41.016-311.65-261.52-409.22-357-437.16zm-306.23 133.41 71.977 37.5-38.133 32.109c-12.82-24.75-24.07-48.164-33.844-69.609zm131.84 146.34c-3.4648 6.4844-9.1172 11.535-15.949 14.254-6.832 2.7148-14.41 2.9258-21.383 0.59375-6.9727-2.3359-12.895-7.0625-16.715-13.348-7.25-11.984-14.148-23.82-20.695-35.508l60.68-51.117 45.914 23.883c-11.836 23.227-22.805 44.156-31.852 61.242z" fill="#fff"/>
</svg>

<?xml version="1.0" encoding="UTF-8" standalone="no"?>
<!DOCTYPE svg PUBLIC "-//W3C//DTD SVG 1.1//EN" "http://www.w3.org/Graphics/SVG/1.1/DTD/svg11.dtd">
<svg width="100%" height="100%" viewBox="0 0 512 510" version="1.1" xmlns="http://www.w3.org/2000/svg" xmlns:xlink="http://www.w3.org/1999/xlink" xml:space="preserve" xmlns:serif="http://www.serif.com/" style="fill-rule:evenodd;clip-rule:evenodd;stroke-linejoin:round;stroke-miterlimit:2;">
    <g transform="matrix(1,0,0,1,-58.9243,-61.569)">
        <g transform="matrix(0.473097,0,0,0.473097,31.0474,32.4409)">
            <path d="M783.77,63.469C774.872,60.864 765.399,60.938 756.543,63.692C747.688,66.442 739.844,71.746 733.988,78.938L640.683,157.524C636.097,161.27 633.031,166.555 632.062,172.395C631.089,178.238 632.281,184.231 635.41,189.258C639.128,194.992 645.132,198.855 651.894,199.867C658.651,200.874 665.523,198.933 670.753,194.531L691.355,177.187C681.98,198.281 672.066,219.375 662.339,239.273L603.066,208.406L602.855,208.406L448.305,128.015L446.898,124.429C441.566,110.659 430.714,99.749 416.976,94.339C403.234,88.929 387.859,89.515 374.57,95.952C309.836,127.171 204.46,185.155 164.62,247.192C116.737,321.676 74.948,457.782 60.67,507.352C56.901,520.184 59.307,534.043 67.186,544.852C102.928,593.438 168.836,622.196 220.466,638.133C227.337,640.262 234.81,639.055 240.657,634.868C246.505,630.68 250.055,623.997 250.255,616.806C251.825,556.501 249.247,497.536 246.716,464.676C246.212,458.363 248.239,452.106 252.356,447.293C256.47,442.476 262.333,439.496 268.649,439.011C274.962,438.527 281.211,440.574 286.016,444.703C290.817,448.832 293.778,454.703 294.247,461.019C295.606,478.597 302.825,581.019 295.02,676.639C297.223,775.428 271.395,892.869 259.864,939.749C256.235,954.62 258.61,970.323 266.474,983.46C307.255,1051.62 380.244,1090.41 447.504,1112.37C519.242,1135.56 595.044,1143.47 670.024,1135.6C826.864,1119.68 901.754,1084.76 944.004,1052.23C954.457,1044.16 961.84,1032.77 964.93,1019.93C968.02,1007.09 966.633,993.577 960.996,981.636C914.941,883.808 911.098,713.416 910.793,685.666C906.149,603.494 895.488,521.776 878.895,441.166C877.176,432.92 879.938,424.377 886.161,418.701C892.383,413.021 901.141,411.048 909.196,413.509C917.25,415.97 923.411,422.502 925.395,430.689C938.754,494.24 948.348,558.529 954.129,623.209C954.863,631.104 959.613,638.064 966.699,641.623C973.788,645.186 982.207,644.842 988.98,640.717C1037.57,610.811 1083.55,576.846 1126.42,539.187C1137.33,529.531 1142.71,515.07 1140.76,500.632C1099.75,188.982 879.244,91.412 783.764,63.472L783.77,63.469ZM477.54,196.879L549.517,234.379L511.384,266.488C498.564,241.738 487.314,218.324 477.54,196.879ZM609.38,343.219C605.915,349.703 600.263,354.754 593.431,357.473C586.599,360.188 579.021,360.399 572.048,358.067C565.075,355.731 559.153,351.004 555.333,344.719C548.083,332.735 541.185,320.899 534.638,309.211L595.318,258.094L641.232,281.977C629.396,305.204 618.427,326.133 609.38,343.219L609.38,343.219Z" style="fill:white;fill-rule:nonzero;"/>
        </g>
    </g>
</svg>
